symbols/web/score/materialsymbolsrounded/score_wght600fill1_20px.svg

<svg xmlns="http://www.w3.org/2000/svg" height="20" width="20"><path d="M4.396 17.896q-.958 0-1.625-.667t-.667-1.625V4.396q0-.958.667-1.625t1.625-.667h11.208q.958 0 1.625.667t.667 1.625v11.208q0 .958-.667 1.625t-1.625.667Zm6.25-7.729q.271 0 .448-.177.177-.178.177-.448v-3.73q0-.27-.177-.447t-.448-.177q-.271 0-.458.177-.188.177-.188.447v3.73q0 .27.188.448.187.177.458.177Zm2.479 0q.354 0 .531-.313.177-.312-.01-.625l-.938-1.583.938-1.521q.187-.313.01-.625t-.531-.312q-.167 0-.313.072-.145.073-.229.219l-1.312 2.167 1.312 2.229q.084.146.229.219.146.073.313.073Zm-6.208 0h1.666q.271 0 .448-.188.177-.187.177-.458t-.177-.448q-.177-.177-.448-.177H7.146v-.584h1.021q.395 0 .718-.322.323-.323.323-.74v-1q0-.396-.323-.729-.323-.333-.718-.333H6.5q-.271 0-.448.177t-.177.447q0 .271.187.459.188.187.459.187h1.396v.584h-1q-.396 0-.719.333-.323.333-.323.729v1q0 .417.323.74t.719.323Zm3.833 6.083q.208 0 .427-.094t.365-.26l3.791-3.792q.167-.166.219-.312.052-.146.052-.313 0-.604-.562-.844-.563-.239-.98.198l-3.229 3.229-2.479-2.479q-.166-.166-.385-.25-.219-.083-.427-.083-.209 0-.427.083-.219.084-.386.25l-2.062 2.063q-.125.146-.198.312-.073.167-.073.354 0 .646.594.896.593.25 1.052-.208l1.5-1.479 2.396 2.375q.166.166.374.26.209.094.438.094Z"/></svg>

<svg xmlns="http://www.w3.org/2000/svg" height="20" width="20"><path d="M4.396 17.896Q3.438 17.896 2.771 17.229Q2.104 16.562 2.104 15.604V4.396Q2.104 3.438 2.771 2.771Q3.438 2.104 4.396 2.104H15.604Q16.562 2.104 17.229 2.771Q17.896 3.438 17.896 4.396V15.604Q17.896 16.562 17.229 17.229Q16.562 17.896 15.604 17.896ZM10.646 10.167Q10.917 10.167 11.094 9.99Q11.271 9.812 11.271 9.542V5.812Q11.271 5.542 11.094 5.365Q10.917 5.188 10.646 5.188Q10.375 5.188 10.188 5.365Q10 5.542 10 5.812V9.542Q10 9.812 10.188 9.99Q10.375 10.167 10.646 10.167ZM13.125 10.167Q13.479 10.167 13.656 9.854Q13.833 9.542 13.646 9.229L12.708 7.646L13.646 6.125Q13.833 5.812 13.656 5.5Q13.479 5.188 13.125 5.188Q12.958 5.188 12.812 5.26Q12.667 5.333 12.583 5.479L11.271 7.646L12.583 9.875Q12.667 10.021 12.812 10.094Q12.958 10.167 13.125 10.167ZM6.917 10.167H8.583Q8.854 10.167 9.031 9.979Q9.208 9.792 9.208 9.521Q9.208 9.25 9.031 9.073Q8.854 8.896 8.583 8.896H7.146V8.312H8.167Q8.562 8.312 8.885 7.99Q9.208 7.667 9.208 7.25V6.25Q9.208 5.854 8.885 5.521Q8.562 5.188 8.167 5.188H6.5Q6.229 5.188 6.052 5.365Q5.875 5.542 5.875 5.812Q5.875 6.083 6.062 6.271Q6.25 6.458 6.521 6.458H7.917V7.042H6.917Q6.521 7.042 6.198 7.375Q5.875 7.708 5.875 8.104V9.104Q5.875 9.521 6.198 9.844Q6.521 10.167 6.917 10.167ZM10.75 16.25Q10.958 16.25 11.177 16.156Q11.396 16.062 11.542 15.896L15.333 12.104Q15.5 11.938 15.552 11.792Q15.604 11.646 15.604 11.479Q15.604 10.875 15.042 10.635Q14.479 10.396 14.062 10.833L10.833 14.062L8.354 11.583Q8.188 11.417 7.969 11.333Q7.75 11.25 7.542 11.25Q7.333 11.25 7.115 11.333Q6.896 11.417 6.729 11.583L4.667 13.646Q4.542 13.792 4.469 13.958Q4.396 14.125 4.396 14.312Q4.396 14.958 4.99 15.208Q5.583 15.458 6.042 15L7.542 13.521L9.938 15.896Q10.104 16.062 10.312 16.156Q10.521 16.25 10.75 16.25Z"/></svg>
